X:1
T: Gloomy Winter
C:
R:Strathspey
Q: 128
K:Am
M:4/4
L:1/16
|:AA3 A3B A3G E4|cc3 c3e d3c B4|AA3 e3A A3G E3C|DD3 EG3 A4 A,4|
AA3 A3B A3G E4|cc3 c3e d3c B4|AA3 e3A A3G E3C|DD3 EG3 A4 A,4|
CC3 C3E D3C B,4|C3B, A,3C B,E3 E4|cc3 c3e d3c Bd3|c3A B3G EA3 A3B|
c3c g3c B3c d4|c3B Ac3 Be3 e4|EA3 G^FED EA3 B3d|c3A B3G EA3 A4:|
